X:185
T:Blakeney's Tamborine. JJo8.185
%%VWML:JohnsonVol8-2184-p93-0
F:http://www.vwml.org/record/JohnsonVol8/2184/p93
Z:Transcribed by Simon Furey and Lewis Jones
Z:vmp.Simon Wilson 2013 www.village-music-project.org.uk
Z:Dance added by John Chambers 2017
M:2/4
L:1/8
%Q:1/4=100
K:A
|:\
AECA, | [A,3E3A3](c/B/A) | eBGE | [E3B3e3](gf/e/) |\
d/c/B- Bd | c/B/(A A)F//(G//A/) | GF/E/T [B,2F2] | [E4B4e4] :|
|:\
ef=ge | dB[B,2F2B2] | defd | cA[A,2E2A2] |\
c>dec | B/e/^d/f/ eA | GF/E/TF2 | E2z/=D/C/B,/ |
A,CEA | [A,2E2A2](c/B/A) | EGBe | [E3B3e3](g/f/e) |\
ceac' | {c'}b3d | cB/A/ EG | [A,4E4A4] :|
W: The 1st Cu. cast off and turn .| cast up and
W:turn ..| hands across with the 2d Cu. the same
W:back again .| Gallop down and up and cast off
W:and Right and Left at Top ..|
W:
T:Barry's Delight. JJo8.186
B:J.Johnson Choice Collection Vol 8 1758
Z:vmp.Simon Wilson 2013 www.village-music-project.org.uk
Z:Dance added by John Chambers 2017
M:2/4
L:1/8
%Q:1/2=80
K:D
|:\
D2((3FGA) | BGAF | D2((3FGA) | BGEd |\
D2((3FGA) | BGAg | fdec | dAFA :|
|:\
{g}fedf | gfeg | eAgA | fAbA |\
{g}fedf | gfeg | fdec | dAFA :|
W: Turn Right hands and cast
W:off one Cu. .| turn Right hand
W:and cast off another Cu. ..| Lead
W:to the top and cast off .| Right
W:and Left at top ..|
W:
